assets/img/input-icon.svg

<svg width="16" height="16" viewBox="0 0 16 16" fill="none" xmlns="http://www.w3.org/2000/svg">
<path fill-rule="evenodd" clip-rule="evenodd" d="M7.2627 5.92673C5.74471 4.60869 4.5147 3.03906 3.5904 1.21033C3.40554 0.846083 2.9754 0.707141 2.62701 0.902407C2.28218 1.09767 2.15062 1.55205 2.33548 1.92005C3.35221 3.92152 4.69602 5.64136 6.35976 7.08707C6.66193 7.34993 7.1134 7.30486 7.36225 6.98568C7.6111 6.66274 7.56487 6.18959 7.2627 5.92673Z" fill="#F8F8F8"/>
<path fill-rule="evenodd" clip-rule="evenodd" d="M6.45325 0.793525C6.53146 2.31059 6.60257 3.82765 6.69145 5.34471C6.71633 5.75777 7.05405 6.07319 7.4451 6.04691C7.83615 6.02062 8.13477 5.66389 8.10989 5.25083C8.02101 3.73752 7.94989 2.22423 7.87169 0.707165C7.85036 0.29523 7.51264 -0.022078 7.12159 0.0012036C6.73054 0.0244852 6.42836 0.379337 6.45325 0.793525Z" fill="#F8F8F8"/>
<path fill-rule="evenodd" clip-rule="evenodd" d="M11.731 1.10147C10.8209 2.55094 9.79002 3.88774 8.75196 5.23957C8.50311 5.56251 8.5493 6.03568 8.85503 6.29478C9.16076 6.55764 9.6087 6.50881 9.854 6.18587C10.9205 4.80023 11.9799 3.42211 12.9184 1.93133C13.1353 1.58586 13.0428 1.12024 12.7157 0.891182C12.3922 0.662121 11.9479 0.755998 11.731 1.10147Z" fill="#F8F8F8"/>
<path fill-rule="evenodd" clip-rule="evenodd" d="M15.2563 6.49002C12.7891 6.60643 10.1691 6.61018 7.70192 6.44496C7.31087 6.42243 6.97314 6.7341 6.94826 7.15092C6.92337 7.56398 7.22199 7.92071 7.61304 7.947C10.13 8.11222 12.8034 8.10847 15.3203 7.99206C15.7113 7.97328 16.017 7.62032 15.9993 7.20726C15.9815 6.79419 15.6473 6.47124 15.2563 6.49002Z" fill="#F8F8F8"/>
<path fill-rule="evenodd" clip-rule="evenodd" d="M6.35784 6.96687C7.87937 8.93454 9.45426 10.8647 10.8656 12.9225C11.0967 13.2567 11.5411 13.3318 11.861 13.0877C12.1774 12.8436 12.2485 12.3742 12.0174 12.04C10.5883 9.95967 8.99567 8.00702 7.45636 6.01682C7.20751 5.69763 6.75956 5.64883 6.45739 5.91169C6.15166 6.17454 6.10899 6.64769 6.35784 6.96687Z" fill="#F8F8F8"/>
<path fill-rule="evenodd" clip-rule="evenodd" d="M6.81867 7.53782C7.21683 9.58811 7.32704 11.5483 7.35548 13.6248C7.35903 14.0379 7.68254 14.3683 8.07359 14.3646C8.4682 14.3571 8.78103 14.0191 8.77392 13.6023C8.74548 11.4281 8.62818 9.38158 8.21224 7.23366C8.13048 6.82811 7.7572 6.56523 7.36971 6.6516C6.98577 6.73421 6.7369 7.13227 6.81867 7.53782Z" fill="#F8F8F8"/>
<path fill-rule="evenodd" clip-rule="evenodd" d="M6.88285 7.37267C5.73103 9.80598 5.13735 12.5097 3.90376 14.8904C3.71535 15.2509 3.8433 15.709 4.18814 15.908C4.53297 16.107 4.96315 15.9718 5.15157 15.6113C6.39226 13.2156 6.99304 10.4969 8.15552 8.04483C8.32972 7.67307 8.18751 7.22246 7.83912 7.0347C7.48718 6.8507 7.0606 7.00092 6.88285 7.37267Z" fill="#F8F8F8"/>
<path fill-rule="evenodd" clip-rule="evenodd" d="M7.51674 6.82046C5.22377 7.24855 2.93435 7.44381 0.627155 7.73295C0.236106 7.78177 -0.0411841 8.15353 0.00503082 8.5666C0.0512458 8.97966 0.403223 9.27255 0.794273 9.22374C3.12635 8.93459 5.4442 8.73181 7.76561 8.29997C8.14955 8.22487 8.40907 7.83434 8.34152 7.42879C8.27042 7.01948 7.90423 6.74536 7.51674 6.82046Z" fill="#F8F8F8"/>
<path fill-rule="evenodd" clip-rule="evenodd" d="M9.11225 5.67912C8.63944 5.65659 8.19151 5.62278 7.72936 5.55144C7.33831 5.49136 6.97924 5.77674 6.92236 6.18605C6.86548 6.59536 7.13564 6.97838 7.52314 7.03847C8.03506 7.11732 8.52922 7.15487 9.04825 7.1774C9.43929 7.19618 9.77345 6.87698 9.78767 6.46017C9.80544 6.0471 9.5033 5.6979 9.11225 5.67912Z" fill="#F8F8F8"/>
</svg>

<svg width="16" height="16" fill="none" xmlns="http://www.w3.org/2000/svg"><path fill-rule="evenodd" clip-rule="evenodd" d="M7.263 5.927A15.373 15.373 0 0 1 3.59 1.21a.694.694 0 0 0-.963-.308c-.345.196-.476.65-.292 1.018A16.942 16.942 0 0 0 6.36 7.087a.689.689 0 0 0 1.002-.101.784.784 0 0 0-.1-1.06Z" fill="#F8F8F8"/><path fill-rule="evenodd" clip-rule="evenodd" d="M6.453.794c.078 1.517.15 3.034.238 4.55.025.414.363.73.754.703.391-.026.69-.383.665-.796-.089-1.513-.16-3.027-.238-4.544-.022-.412-.36-.73-.75-.706-.391.023-.694.378-.669.793ZM11.731 1.101c-.91 1.45-1.941 2.787-2.979 4.139a.776.776 0 0 0 .103 1.055.682.682 0 0 0 .999-.11c1.067-1.385 2.126-2.763 3.064-4.254a.777.777 0 0 0-.202-1.04.688.688 0 0 0-.985.21Z" fill="#F8F8F8"/><path fill-rule="evenodd" clip-rule="evenodd" d="M15.256 6.49c-2.467.116-5.087.12-7.554-.045-.391-.023-.729.29-.754.706-.025.413.274.77.665.796 2.517.165 5.19.161 7.707.045.391-.019.697-.372.68-.785-.018-.413-.353-.736-.744-.717Z" fill="#F8F8F8"/><path fill-rule="evenodd" clip-rule="evenodd" d="M6.358 6.967c1.521 1.968 3.096 3.898 4.508 5.955a.69.69 0 0 0 .995.166.778.778 0 0 0 .156-1.048c-1.429-2.08-3.021-4.033-4.56-6.023a.685.685 0 0 0-1-.105.776.776 0 0 0-.1 1.055Z" fill="#F8F8F8"/><path fill-rule="evenodd" clip-rule="evenodd" d="M6.819 7.538c.398 2.05.508 4.01.536 6.087.004.413.328.743.719.74.394-.008.707-.346.7-.763-.029-2.174-.146-4.22-.562-6.368-.082-.406-.455-.669-.842-.582-.384.082-.633.48-.551.886Z" fill="#F8F8F8"/><path fill-rule="evenodd" clip-rule="evenodd" d="M6.883 7.373C5.73 9.806 5.137 12.51 3.903 14.89a.772.772 0 0 0 .285 1.018.692.692 0 0 0 .964-.297c1.24-2.395 1.841-5.114 3.004-7.566.174-.372.032-.823-.317-1.01-.352-.184-.778-.034-.956.338Z" fill="#F8F8F8"/><path fill-rule="evenodd" clip-rule="evenodd" d="M7.517 6.82c-2.293.429-4.583.624-6.89.913-.39.049-.668.42-.622.834.046.413.398.706.79.657 2.331-.29 4.65-.492 6.97-.924.385-.075.644-.466.577-.871-.072-.41-.438-.684-.825-.609Z" fill="#F8F8F8"/><path fill-rule="evenodd" clip-rule="evenodd" d="M9.112 5.68c-.473-.023-.92-.057-1.383-.129-.39-.06-.75.226-.807.635-.057.41.214.792.601.852a13.79 13.79 0 0 0 1.525.14c.391.018.725-.301.74-.718.017-.413-.285-.762-.676-.78Z" fill="#F8F8F8"/></svg>
